X:1
T:Title
%%score ( 1 2 ) 3 [ ( 4 5 ) ( 6 7 ) ]
L:1/8
Q:1/4=94
M:3/4
K:G
V:1 treble nm="Bläser"
V:2 treble 
V:3 treble stafflines=1 nm="Pauken           D  			                 G"
V:4 treble nm="Sopran Alt"
V:5 treble 
V:6 bass nm="Tenor Bass"
V:7 bass 
V:1
 d2 | d4 d2 | c4 B2 | A2 B2 c2 | B4 d2 | e4 e2 | e2 d^c d2- | d2 ^cB c2 | d4 d2 | B4 e2 | d6- | %11
 d2 f2 e2 | d4 f2 | e2 d4- | d2 ef g2- | g2 fe f2 | g4 :| %17
V:2
 B2 | B4 B2 | G2 A2 D2 | D6 | D4 B2 | B4 A2 | A4 B2- | B2 A2 G2 | !breath!A4 B2 | G4 c2 | A4 G2 | %11
 A2 d2 ^c2 | d4 B2 | G2 A2 B2 | c4 Bc | d2 AG A2 | B4 :| %17
V:3
 x2 | z4 B2 | B2 B2 B2 | B4 z2 | x6 | x6 | z4 B2 | B2 B2 B2 | B4 z2 | x6 | z4 B2 | B2 B2 B2 | %12
 B4 z2 | x6 | z4 B2 | B2 B2 B2 | B4 :| %17
V:4
 G2 | G4 F2 | (E2 F2) G2 | A6 | G4 G2 | G4 A2 | (F2 G2) A2 | G6 | F4 F2 | G4 G2 | A4 B2 | A6 | %12
w: Wach|auf, mein|Herz, * und|sin-|ge dem|Schöp- fer|al- * ler|Din-|ge, dem|Ge- her|al- *||
 A4 B2 | c4 B2 | A4 B2 | A6 | G4 :| %17
w: |||||
V:5
 D2 | G2 A2 B2 | (E2 C2) G2 | (G2 FE F2) | D4 D2 | (G2 F2) E2 | (F2 E2) D2 | E6 | !breath!A,4 D2 | %9
w: |||||||||
w: Sprich|ja * zu|mei- * nen|Ta- * * *|ten, hilf|selbst- * das|Gu- * te|ra-|ten, den|
w: Mit|Se- * gen|mich * be-|hü- * * *|te, mein|Herz * sei|dei- * ne|Hü-|tte, dein|
 E4 E2 | A,2 D4 | (D4 E2) | F4 F2 | G2 D4 | D4 D2 | D6 | D4 :| %17
w: |* ler|Gü- *|ter, dem|from- men|Men- schen-|hü-|ter.|
w: An- fang|und das|En- *|de, ach|Herr, zum|Be- sten|wen-|de.|
w: Wort sei|me- ine|Spei- *|se, bis|ich zum|Him- mel|rei-|se.|
V:6
 B,2 | (B,2 C2) D2 | (G,2 C2) D2 | (D4 A,2) | B,4 B,2 | B,4 E2 | A,4 D2 | (B,2 E,2 G,2) | D4 D2 | %9
 D4 C2 | C4 B,2 | (F,4 G,2) | A,4 D2 | ((C2 A,2)) G,2 | A,4 G,2 | (A,B, C4) | B,4 :| %17
V:7
 G,2 | E,4 B,,2 | (C,2 A,,2) G,,2 | D,6 | G,,4 G,2 | (E,2 D,2) ^C,2 | D,4 B,,2 | E,6 | %8
 !breath!D,4 B,,2 | (E,2 F,2) G,2 | (F,2 D,2) G,2 | D,6 | D,4 B,,2 | (E,2 F,2) G,2 | %14
 (F,2 D,2) G,2 | D,6 | G,,4 :| %17

